X:4
T:Worcester Hornpipe,aka. JNi.[004]
T:Worster Hp,aka. JNi.[004]
T:Prince of Wales Hp,aka. JNi.[004]
T:New Bridge Hp,aka. JNi.[004]
T:Hornpipe (untitled in MS). JNi.[004]
M:C
L:1/8
R:.hornpipe
B:John Nichol MS, mid 19thC, Northumberland
Z:Village Music Project Peter Dunk 2016
Q:1/4=140
K:G
D2|GFGA GBdB|cdef gfge|dBGB dBGB|cAFA cAFA|
GFGA GBdB|cdef gfge|dgfg ecAF|G2G2G2:|
|:Bc|dBdB dBdB|cece cece|dBdB GBdB|AGFE D2 Bc|
dBdB GBdB|cdef gfge|dgfg ecAF|G2G2G2:|

